usr/share/icons/big-icons/symbolic/actions/ui-style-symbolic.svg

<svg width="16px" height="16px" version="1.1" viewBox="0 0 16 16" xmlns="http://www.w3.org/2000/svg">
 <path d="m7 1v0.5 0.5 1 1 1.0039 0.0058594c0-6e-7 3.337e-4 0.23957-0.125 0.49023-0.09842 0.19684-0.41238 0.5-0.875 0.5h-1-0.0019531c-0.30687-0.004582-0.62387 0.15765-0.75781 0.30664-0.18116 0.20152-0.24631 0.4288-0.25195 0.66992l-0.0058593 0.21875 0.017578 0.017578v0.78711h9v-0.79102l0.011719-0.011719-0.003907-0.21289c-0.003882-0.24199-0.06724-0.47401-0.24805-0.67578-0.13114-0.14634-0.44867-0.31142-0.75781-0.30859h-1.002c-0.46262 0-0.77658-0.30316-0.875-0.5-0.12533-0.25067-0.125-0.49023-0.125-0.49023v-0.0058594-1.0039-1-1-1h-1-1-1zm1 1h1v1h-1v-1zm0 2h1v0.99023s-0.013447 0.46724 0.23047 0.95508c0.27084 0.54167 0.89882 1.0547 1.7695 1.0547h-5c0.87071 0 1.4987-0.51302 1.7695-1.0547 0.24392-0.48784 0.23047-0.95508 0.23047-0.95508v-0.99023zm-4 5v0.5 0.5 0.001953s3.084e-4 0.99681-0.25 1.998c-0.10569 0.42275-0.28898 0.84907-0.53516 1.2266l-0.50586 0.77344h2.791l1.5-3h0.0019531l-0.5 3h1.998l1.5-3h0.001953l-0.5 3h1.498c0.46945 0 0.8934-0.27454 1.1562-0.625 0.28607-0.38143 0.46737-0.86949 0.59375-1.375 0.25036-1.0014 0.25-1.998 0.25-1.998v-0.001953-1h-9z" color="#000000" fill="#363636" fill-rule="evenodd" stroke-linecap="square" style="-inkscape-stroke:none"/>
</svg>

<svg xmlns="http://www.w3.org/2000/svg" width="16" height="16">
<path fill="#fcfcfc" fill-rule="evenodd" d="M7 1v4.01s0 .24-.125.49c-.098.197-.412.5-.875.5H4.998c-.307-.005-.624.158-.758.307a1 1 0 0 0-.252.67l-.006.218.018.018V8h9v-.791l.012-.012-.004-.213a1 1 0 0 0-.248-.675c-.131-.147-.449-.312-.758-.309H11c-.463 0-.777-.303-.875-.5C10 5.25 10 5.01 10 5.01V1zm1 1h1v1H8zm0 2h1v.99s-.013.467.23.955C9.501 6.487 10.13 7 11 7H6c.87 0 1.499-.513 1.77-1.055.243-.488.23-.955.23-.955zM4 9v1.002s0 .997-.25 1.998a4.1 4.1 0 0 1-.535 1.227L2.709 14H5.5L7 11h.002l-.5 3H8.5l1.5-3h.002l-.5 3H11c.47 0 .893-.275 1.156-.625.286-.381.467-.87.594-1.375.25-1.001.25-1.998.25-1.998V9z" color="#000" style="-inkscape-stroke:none"/>
</svg>
